flaticon/hand-gestures/call.svg

<svg xmlns="http://www.w3.org/2000/svg" width="32" height="32" viewBox="0 0 24 24">
    <path d="M 19.730469 19.863281 L 19.6875 19.863281 L 15.957031 18.296875 L 18.164062 18.296875 C 19.164062 18.296875 19.949219 17.515625 19.949219 16.554688 L 19.949219 16.164062 C 19.949219 15.78125 19.816406 15.417969 19.59375 15.121094 C 20.296875 14.835938 20.828125 14.109375 20.863281 13.335938 L 20.863281 13.074219 C 20.863281 12.445312 20.507812 11.894531 19.96875 11.585938 C 20.226562 11.28125 20.382812 10.890625 20.382812 10.460938 L 20.382812 10.070312 C 20.382812 9.070312 19.601562 8.285156 18.644531 8.285156 L 11.199219 8.285156 L 11.632812 7.71875 C 12.246094 6.890625 13.8125 4.019531 13.941406 2.277344 C 13.984375 1.277344 13.160156 0.1875 12.15625 0.015625 C 11.851562 -0.03125 10.765625 -0.0742188 10.328125 1.582031 C 9.9375 3.148438 8.195312 5.585938 6.933594 6.628906 C 6.324219 7.152344 5.800781 7.847656 5.324219 8.71875 L 3.84375 8.71875 C 2.796875 8.71875 2.101562 9.375 2.101562 10.289062 L 2.101562 18.125 C 2.101562 19.039062 2.796875 20.039062 3.84375 20.039062 L 5.496094 20.039062 C 7.28125 21.386719 7.5 21.386719 11.113281 21.386719 L 11.632812 21.386719 L 18.949219 23.738281 C 19.210938 23.824219 19.6875 24 20.167969 24 C 20.6875 24 21.253906 23.78125 21.648438 23.042969 C 22.34375 21.5625 21.558594 20.820312 19.730469 19.863281 Z M 19.078125 16.554688 C 19.078125 17.035156 18.6875 17.425781 18.164062 17.425781 L 13.417969 17.425781 C 12.941406 17.425781 12.550781 17.035156 12.550781 16.554688 L 12.550781 16.164062 C 12.550781 15.640625 12.941406 15.25 13.417969 15.25 L 18.164062 15.25 C 18.644531 15.25 19.078125 15.683594 19.078125 16.164062 Z M 19.992188 13.335938 C 19.992188 13.855469 19.515625 14.378906 18.992188 14.378906 L 13.507812 14.378906 C 12.941406 14.378906 12.550781 14.03125 12.550781 13.507812 L 12.550781 13.246094 C 12.550781 12.683594 12.984375 12.203125 13.507812 12.203125 L 18.992188 12.203125 C 19.46875 12.203125 19.992188 12.507812 19.992188 13.074219 Z M 19.515625 10.070312 L 19.515625 10.460938 C 19.515625 10.941406 19.121094 11.332031 18.644531 11.332031 L 13.855469 11.332031 C 13.375 11.332031 12.984375 10.941406 12.984375 10.460938 L 12.984375 10.070312 C 12.984375 9.9375 13.007812 9.816406 13.054688 9.707031 C 13.0625 9.679688 13.078125 9.652344 13.089844 9.625 C 13.144531 9.523438 13.214844 9.433594 13.300781 9.359375 C 13.367188 9.304688 13.4375 9.257812 13.515625 9.226562 C 13.570312 9.203125 13.625 9.183594 13.679688 9.171875 C 13.738281 9.160156 13.796875 9.15625 13.855469 9.15625 L 18.644531 9.15625 C 19.121094 9.15625 19.515625 9.546875 19.515625 10.070312 Z M 20.863281 22.695312 C 20.601562 23.171875 20.296875 23.304688 19.210938 22.910156 L 11.808594 20.515625 C 11.765625 20.515625 11.722656 20.515625 11.679688 20.515625 L 11.070312 20.515625 C 7.5 20.515625 7.542969 20.515625 5.84375 19.253906 C 5.757812 19.210938 5.671875 19.167969 5.582031 19.167969 L 3.84375 19.167969 C 3.363281 19.167969 2.972656 18.601562 2.972656 18.125 L 2.972656 10.289062 C 2.972656 9.632812 3.710938 9.589844 3.84375 9.589844 L 4.929688 9.589844 C 4.285156 11.347656 4.675781 12.691406 4.714844 12.769531 C 4.800781 12.941406 4.972656 13.074219 5.148438 13.074219 C 5.191406 13.074219 5.234375 13.074219 5.234375 13.074219 C 5.496094 12.988281 5.628906 12.726562 5.539062 12.507812 C 5.539062 12.464844 5.167969 11.144531 5.914062 9.46875 C 5.949219 9.441406 5.984375 9.410156 6.019531 9.375 C 6.453125 8.460938 6.933594 7.804688 7.5 7.328125 C 8.71875 6.28125 10.71875 3.714844 11.199219 1.84375 C 11.285156 1.363281 11.546875 0.839844 12.027344 0.929688 C 12.546875 1.015625 13.113281 1.710938 13.070312 2.234375 C 12.941406 3.757812 11.503906 6.457031 10.894531 7.238281 L 10.023438 8.503906 C 9.9375 8.632812 9.894531 8.808594 9.980469 8.9375 C 10.066406 9.070312 10.199219 9.15625 10.371094 9.15625 L 12.355469 9.15625 C 12.28125 9.285156 12.222656 9.425781 12.179688 9.570312 C 12.179688 9.578125 12.175781 9.585938 12.175781 9.59375 C 12.171875 9.613281 12.164062 9.632812 12.160156 9.65625 C 12.144531 9.722656 12.132812 9.789062 12.125 9.859375 C 12.125 9.875 12.121094 9.894531 12.121094 9.910156 C 12.121094 9.925781 12.117188 9.941406 12.117188 9.960938 C 12.113281 9.996094 12.113281 10.03125 12.113281 10.070312 L 12.113281 10.460938 C 12.113281 10.488281 12.113281 10.515625 12.117188 10.542969 C 12.125 10.761719 12.175781 10.972656 12.261719 11.164062 C 12.261719 11.164062 12.265625 11.167969 12.265625 11.171875 C 12.273438 11.191406 12.285156 11.210938 12.292969 11.230469 C 12.296875 11.234375 12.296875 11.238281 12.300781 11.242188 C 12.367188 11.371094 12.445312 11.492188 12.539062 11.597656 C 12.074219 11.914062 11.753906 12.433594 11.691406 13.035156 C 11.6875 13.050781 11.6875 13.066406 11.6875 13.082031 C 11.683594 13.097656 11.683594 13.117188 11.679688 13.136719 C 11.679688 13.171875 11.679688 13.210938 11.679688 13.246094 L 11.679688 13.507812 C 11.679688 13.542969 11.679688 13.574219 11.679688 13.605469 C 11.679688 13.609375 11.679688 13.613281 11.683594 13.617188 C 11.683594 13.644531 11.683594 13.675781 11.6875 13.699219 C 11.6875 13.703125 11.6875 13.707031 11.6875 13.710938 C 11.691406 13.738281 11.695312 13.769531 11.699219 13.796875 C 11.699219 13.796875 11.699219 13.800781 11.703125 13.800781 C 11.765625 14.210938 11.972656 14.5625 12.273438 14.820312 C 11.933594 15.121094 11.710938 15.558594 11.679688 16.058594 C 11.679688 16.0625 11.679688 16.0625 11.679688 16.066406 C 11.679688 16.101562 11.679688 16.132812 11.679688 16.164062 L 11.679688 16.554688 C 11.679688 17.515625 12.460938 18.296875 13.417969 18.296875 L 13.636719 18.296875 L 19.296875 20.691406 C 21.296875 21.738281 21.125 22.128906 20.863281 22.695312 Z M 20.863281 22.695312"/>
</svg>

<svg xmlns="http://www.w3.org/2000/svg" width="32" height="32" viewBox="0 0 24 24">
    <path d="M19.73 19.863h-.043l-3.73-1.566h2.207c1 0 1.785-.781 1.785-1.742v-.39c0-.384-.133-.747-.355-1.044.703-.285 1.234-1.012 1.27-1.785v-.262c0-.629-.356-1.18-.895-1.488.258-.305.414-.695.414-1.125v-.39c0-1-.781-1.786-1.738-1.786h-7.446l.434-.566c.613-.828 2.18-3.7 2.308-5.442.043-1-.78-2.09-1.785-2.261-.304-.047-1.39-.09-1.828 1.566-.39 1.566-2.133 4.004-3.394 5.047-.61.523-1.133 1.219-1.61 2.09h-1.48c-1.047 0-1.742.656-1.742 1.57v7.836c0 .914.695 1.914 1.742 1.914h1.652c1.785 1.348 2.004 1.348 5.617 1.348h.52l7.316 2.351c.262.086.738.262 1.219.262.52 0 1.086-.219 1.48-.957.696-1.48-.09-2.223-1.918-3.18zm-.652-3.308c0 .48-.39.87-.914.87h-4.746a.871.871 0 0 1-.867-.87v-.39c0-.524.39-.915.867-.915h4.746c.48 0 .914.434.914.914zm.914-3.22c0 .52-.476 1.044-1 1.044h-5.484c-.567 0-.957-.348-.957-.871v-.262c0-.562.433-1.043.957-1.043h5.484c.477 0 1 .305 1 .871zm-.476-3.265v.39c0 .481-.395.872-.871.872h-4.79a.872.872 0 0 1-.87-.871v-.39c0-.133.023-.255.07-.364.008-.027.023-.055.035-.082a.932.932 0 0 1 .21-.266.899.899 0 0 1 .379-.188.891.891 0 0 1 .176-.015h4.79c.476 0 .87.39.87.914zm1.347 12.625c-.261.477-.566.61-1.652.215l-7.402-2.394h-.739c-3.57 0-3.527 0-5.226-1.262-.086-.043-.172-.086-.262-.086H3.844c-.48 0-.871-.566-.871-1.043v-7.836c0-.656.738-.7.87-.7H4.93c-.645 1.759-.254 3.102-.215 3.18.086.172.258.305.433.305h.086c.262-.086.395-.347.305-.566 0-.043-.371-1.363.375-3.04.035-.027.07-.058.106-.093.433-.914.914-1.57 1.48-2.047 1.219-1.047 3.219-3.613 3.7-5.484.085-.48.347-1.004.827-.914.52.086 1.086.78 1.043 1.304-.129 1.524-1.566 4.223-2.175 5.004l-.872 1.266c-.085.129-.128.305-.043.434a.453.453 0 0 0 .391.218h1.984a1.94 1.94 0 0 0-.175.414c0 .008-.004.016-.004.024-.004.02-.012.039-.016.062a1.695 1.695 0 0 0-.035.203c0 .016-.004.036-.004.051 0 .016-.004.031-.004.05-.004.036-.004.071-.004.11v.39c0 .028 0 .056.004.083a1.662 1.662 0 0 0 .149.629c.007.02.02.039.027.058.004.004.004.008.008.012.066.13.144.25.238.356a1.98 1.98 0 0 0-.848 1.437c-.004.016-.004.031-.004.047-.003.016-.003.035-.007.055V13.605c0 .004 0 .008.004.012 0 .028 0 .059.004.082v.012l.011.086s0 .004.004.004c.063.41.27.761.57 1.02-.34.3-.562.738-.593 1.238v.495c0 .962.78 1.743 1.738 1.743h.219l5.66 2.394c2 1.047 1.828 1.438 1.566 2.004zm0 0"/>
</svg>
